X: 8
T: The Month of May
C: Traditional
O: England
M: 6/8
L: 1/8
R: jig
K: Gmaj
D|"G" G2G GFG|"D" A2B "C" c2d|e2e "G" dBG|"Em" GFG "D" AFD| 
"G" G2G GFG|"D" A2B c2d|"C" efg "G" dcB|"D" AGG "G" G2:|
|:B|"D" A2A A2B|cdc "G" B2d|g2d g2d|BAG d3| 
"D" A2A A2A|cdc "G" Bcd|"C" efg "G" dcB|"D" AGG "G" G2:|

